X:61
T:Dark Girl Dressed in Blue
R:polka 32
B:English Choice, Nick Barber, pub mally.com
M:2/2
L:1/8
Q:1/4=180
K:D
|:"D"A3G F3G|"D"AB=cA "G"B2G2|
"D"A3G F3G|A2dc d4|
"D"A3G F3G|"D"AB=cA "G"B2G2|
"D"A2d2 "A"cdec|1"D"d2f2 d4:|2
"D"d2f2 d2e2||
:"D"f2a2 "A"g2fe|"G"d3B "A"A4|
"D"f2a2 "A"gfe2|"D"d6 e2|
f2a2 "A"g2fe|"G"d3B "A"A2B2|
"C"=c4 B2A2|"G"G2A2 "C"=c2B2:|]

